lib/flags/m/MOZ.svg

<svg xmlns="http://www.w3.org/2000/svg" fill="none" viewBox="0 0 20 15"><mask id="MOZ_svg__a" width="20" height="15" x="0" y="0" mask-type="alpha" maskUnits="userSpaceOnUse"><path fill="#fff" d="M0 0H20V15H0z"/></mask><g mask="url(#MOZ_svg__a)"><path fill="#F7FCFF" fill-rule="evenodd" d="M0 0V15H20V0H0Z" clip-rule="evenodd"/><mask id="MOZ_svg__b" width="20" height="15" x="0" y="0" mask-type="alpha" maskUnits="userSpaceOnUse"><path fill="#fff" fill-rule="evenodd" d="M0 0V15H20V0H0Z" clip-rule="evenodd"/></mask><g mask="url(#MOZ_svg__b)"><path fill="#FECA00" fill-rule="evenodd" d="M0 0V5H20V0H0Z" clip-rule="evenodd"/><path fill="#093" fill-rule="evenodd" d="M0 10V15H20V10H0Z" clip-rule="evenodd"/><path fill="#272727" stroke="#fff" stroke-width="1.25" d="M0 4.375H-0.625V5V10V10.625H0H20H20.625V10V5V4.375H20H0Z"/></g><path fill="#F50100" fill-rule="evenodd" d="M0 0V15L11.25 7.5L0 0Z" clip-rule="evenodd"/><mask id="MOZ_svg__c" width="12" height="15" x="0" y="0" mask-type="alpha" maskUnits="userSpaceOnUse"><path fill="#fff" fill-rule="evenodd" d="M0 0V15L11.25 7.5L0 0Z" clip-rule="evenodd"/></mask><g mask="url(#MOZ_svg__c)"><path fill="#FECA00" fill-rule="evenodd" d="M5.043 8.97076L2.68117 10.8773L3.76453 8.32942L1.90302 6.53678H4.10027L5.00188 4.375L5.9595 6.53678H8.15302L6.19317 8.32942L7.17402 10.8773L5.043 8.97076Z" clip-rule="evenodd"/><path fill="#F7FCFF" fill-rule="evenodd" d="M3.84749 7.49015L3.44693 8.82793C3.44693 8.82793 4.7992 8.81455 4.96162 8.95119C5.45099 8.64603 6.45847 8.82793 6.45847 8.82793L5.92261 7.39622C5.92261 7.39622 5.2432 7.08837 4.96162 7.25716C4.27144 7.10126 3.84749 7.49015 3.84749 7.49015Z" clip-rule="evenodd"/><path fill="#000" d="M7.22736 9.5102C7.33117 9.64807 7.30357 9.844 7.1657 9.94782C7.02782 10.0516 6.83189 10.024 6.72808 9.88616L4.11552 6.41663C4.0117 6.27876 4.03931 6.08283 4.17718 5.97902C4.31505 5.8752 4.51098 5.9028 4.6148 6.04068L7.22736 9.5102Z"/><path stroke="#000" stroke-linecap="round" stroke-linejoin="round" stroke-width=".625" d="M4.35876 6.14985L4.10876 5.84985"/><path fill="#000" fill-rule="evenodd" d="M3.50291 5.85156 2.74759 7.06115 3.12525 7.71533 3.98911 6.43143 4.14449 6.03443 3.98911 5.85156H3.50291zM2.52435 9.44282 2.88849 9.95642 5.69825 6.63199 5.8148 6.76224 6.46248 6.15291 7.49759 5.02686 6.46248 5.87285 6.12773 5.78003 5.8148 6.27166H5.50087L3.20582 8.82642 2.52435 9.44282z" clip-rule="evenodd"/></g></g></svg>

<svg xmlns="http://www.w3.org/2000/svg" fill="none" viewBox="0 0 20 15"><mask id="MOZ_svg__a" width="20" height="15" x="0" y="0" maskUnits="userSpaceOnUse"><path fill="#fff" d="M0 0h20v15H0z"/></mask><g mask="url(#MOZ_svg__a)"><path fill="#F7FCFF" fill-rule="evenodd" d="M0 0v15h20V0H0z" clip-rule="evenodd"/><mask id="MOZ_svg__b" width="20" height="15" x="0" y="0" maskUnits="userSpaceOnUse"><path fill="#fff" fill-rule="evenodd" d="M0 0v15h20V0H0z" clip-rule="evenodd"/></mask><g mask="url(#MOZ_svg__b)"><path fill="#FECA00" fill-rule="evenodd" d="M0 0v5h20V0H0z" clip-rule="evenodd"/><path fill="#093" fill-rule="evenodd" d="M0 10v5h20v-5H0z" clip-rule="evenodd"/><path fill="#272727" stroke="#fff" stroke-width="1.25" d="M0 4.375h-.625v6.25h21.25v-6.25H0z"/></g><path fill="#F50100" fill-rule="evenodd" d="M0 0v15l11.25-7.5L0 0z" clip-rule="evenodd"/><mask id="MOZ_svg__c" width="12" height="15" x="0" y="0" maskUnits="userSpaceOnUse"><path fill="#fff" fill-rule="evenodd" d="M0 0v15l11.25-7.5L0 0z" clip-rule="evenodd"/></mask><g mask="url(#MOZ_svg__c)"><path fill="#FECA00" fill-rule="evenodd" d="M5.043 8.97l-2.362 1.907L3.765 8.33 1.903 6.537H4.1l.902-2.162.957 2.162h2.194l-1.96 1.792.981 2.548-2.131-1.906z" clip-rule="evenodd"/><path fill="#F7FCFF" fill-rule="evenodd" d="M3.847 7.49l-.4 1.338s1.352-.013 1.515.123c.489-.305 1.496-.123 1.496-.123l-.535-1.432s-.68-.308-.961-.139c-.69-.156-1.115.233-1.115.233z" clip-rule="evenodd"/><path fill="#000" d="M7.227 9.51a.313.313 0 01-.499.376l-2.612-3.47a.312.312 0 11.499-.375l2.612 3.47z"/><path stroke="#000" stroke-linecap="round" stroke-linejoin="round" stroke-width=".625" d="M4.359 6.15l-.25-.3"/><path fill="#000" fill-rule="evenodd" d="M3.503 5.852l-.755 1.21.377.653.864-1.284.156-.397-.156-.182h-.486zm-.979 3.591l.365.513 2.81-3.324.116.13.647-.61 1.036-1.125-1.035.846-.335-.093-.313.492H5.5L3.206 8.826l-.682.617z" clip-rule="evenodd"/></g></g></svg>
